X:551
T:Miss Katherine Stewart Forbes
R:Strathspey
C:William Marshall
B:The Athole Collection
M:C
L:1/8
K:F
a|F<F F>A G>AB>d|F<F F>A cd/e/ ~f>c|d<fA<f G>A B<d|~c>f e/f/g/e/ ~f2f:|
a|c<fA<f G<(g g)>a|c<fA<f c<fA<f|B<gA<f G>AB>d|~c>f e/f/g/e/ ~f2 f>a|
c<fA<f G<(g ~g)>a|c<fA<f c<FA<F|B>dc>A G>AB>d|c>f e/f/g/e/ f2 f||

